X: 1
T: Up The River
R: jig
Z: Moshe Braner, June 2010
N: suggested medley: precede with Broken Lantern (or St. Lawrence), follow with Fair Jenny
M: 6/8
L: 1/8
K:G
"D7"B2c |\
"G"d2B "C"e2B | "G"dBG GFG | "D"AFD DEF | "G"GFG "D"ABc |
"G"dBB "C"eBB | "G"dBG GFG | "D"AFD DEF | "G"G3 :|
K:D
"D"F2G |\
"D"AFA dcd | AFA dcd | "A"cee efe | "D"dcB AGF |
"D"AFA dcd | AFA dcd | "A"c2e efe | "D"d3 :|
